symbols/default/06n.svg

<svg width="100" height="100" viewBox="0 0 100 100" fill="none" xmlns="http://www.w3.org/2000/svg">
<g clip-path="url(#clip0_149_1394)">
<path fill-rule="evenodd" clip-rule="evenodd" d="M28.4427 13.5647C28.4427 9.69639 27.3268 6.05127 25.5415 2.92688C35.2069 4.16076 42.7878 11.8376 43.9187 21.5338C39.9745 23.675 36.524 26.707 33.9 30.4001H32.8C27.9 30.4001 23.4 32.7001 20.7 36.6C16.6415 36.8436 12.8466 38.273 9.68955 40.7279C7.57913 39.0481 5.78488 36.9739 4.41464 34.6171C5.30733 34.7659 6.20001 34.8403 7.16708 34.8403C18.9207 34.8403 28.4427 25.3183 28.4427 13.5647Z" fill="url(#paint0_linear_149_1394)"/>
<path fill-rule="evenodd" clip-rule="evenodd" d="M57.7 23C69.4 23 79.4 31.6 81.3 42.9C87.5 44.5 92 50.2 92 56.8C92 64.7 85.5 71.1 77.6 71.1H61.3625C60.9568 70.0514 60.2664 69.2847 59.2 68.8L55.2 67.1L57.4 54.8C57.8 52.9 56.6 51 54.8 50.3C54.4 50.1 54 50 53.6 50C52.2 50 50.8 50.8 50.1 52.1L39.7718 71.1H21.9C18 71.1 14.3 69.6 11.6 66.9C8.7 64.2 7.1 60.5 7 56.4V56.2C7 52.4 8.5 48.8 11.2 46C14 43.1 17.8 41.5 21.9 41.5C22.5 41.5 23 41.5 23.6 41.6C25 37.9 28.6 35.4 32.8 35.4C34 35.4 35.2 35.6 36.4 36.1C40.4 28.1 48.6 23 57.7 23Z" fill="#B2B2B2"/>
<g opacity="0.6">
<path fill-rule="evenodd" clip-rule="evenodd" d="M57.7 23C69.4 23 79.4 31.6 81.3 42.9C87.5 44.5 92 50.2 92 56.8C92 64.7 85.5 71.1 77.6 71.1H61.3625C60.9568 70.0514 60.2664 69.2847 59.2 68.8L55.2 67.1L57.4 54.8C57.8 52.9 56.6 51 54.8 50.3C54.4 50.1 54 50 53.6 50C52.2 50 50.8 50.8 50.1 52.1L39.7718 71.1H21.9C18 71.1 14.3 69.6 11.6 66.9C8.7 64.2 7.1 60.5 7 56.4V56.2C7 52.4 8.5 48.8 11.2 46C14 43.1 17.8 41.5 21.9 41.5C22.5 41.5 23 41.5 23.6 41.6C25 37.9 28.6 35.4 32.8 35.4C34 35.4 35.2 35.6 36.4 36.1C40.4 28.1 48.6 23 57.7 23Z" fill="url(#paint1_linear_149_1394)" style="mix-blend-mode:multiply"/>
</g>
<path d="M53.5 99C53.2 99 52.8 98.9 52.5 98.8C51.2 98.2 50.7 96.8 51.2 95.5L54.7 87.5C55.3 86.2 56.7 85.7 58 86.2C59.3 86.8 59.8 88.2 59.3 89.5L55.8 97.5C55.4 98.5 54.5 99 53.5 99Z" fill="#006EDB"/>
<path d="M68.5 90C68.2 90 67.8 89.9 67.5 89.8C66.2 89.2 65.7 87.8 66.2 86.5L69.7 78.5C70.3 77.2 71.7 76.7 73 77.2C74.3 77.8 74.8 79.2 74.3 80.5L70.8 88.5C70.4 89.5 69.5 90 68.5 90Z" fill="#006EDB"/>
<path d="M32.5 90C32.2 90 31.8 89.9 31.5 89.8C30.2 89.2 29.7 87.8 30.2 86.5L33.7 78.5C34.3 77.2 35.7 76.7 37 77.2C38.3 77.8 38.8 79.2 38.3 80.5L34.8 88.5C34.4 89.5 33.5 90 32.5 90Z" fill="#006EDB"/>
<path fill-rule="evenodd" clip-rule="evenodd" d="M50.8 69.4L53.6 54L43 73.5L50.1 76.5L45.5 94L57.7 72.4L50.8 69.4Z" fill="#FF9D00"/>
</g>
<defs>
<linearGradient id="paint0_linear_149_1394" x1="12.9138" y1="43.4637" x2="40.2563" y2="10.8782" gradientUnits="userSpaceOnUse">
<stop stop-color="#686E73"/>
<stop offset="0.9891" stop-color="#6A7075"/>
</linearGradient>
<linearGradient id="paint1_linear_149_1394" x1="47.5" y1="38.5" x2="49.5" y2="71.1" gradientUnits="userSpaceOnUse">
<stop offset="0.484375" stop-color="white" stop-opacity="0"/>
<stop offset="1" stop-color="#B3B2B2"/>
</linearGradient>
<clipPath id="clip0_149_1394">
<rect width="100" height="100" fill="white"/>
</clipPath>
</defs>
</svg>

<svg xmlns="http://www.w3.org/2000/svg" fill="none" viewBox="0 0 100 100">
  <g clip-path="url(#a)">
    <path fill="url(#b)" fill-rule="evenodd" d="M28.443 13.565c0-3.869-1.116-7.514-2.902-10.638 9.666 1.234 17.247 8.91 18.378 18.607A29.67 29.67 0 0 0 33.9 30.4h-1.1c-4.9 0-9.4 2.3-12.1 6.2-4.058.244-7.853 1.673-11.01 4.128a21.852 21.852 0 0 1-5.275-6.11c.892.148 1.785.222 2.752.222 11.754 0 21.276-9.522 21.276-21.275Z" clip-rule="evenodd"/>
    <path fill="#B2B2B2" fill-rule="evenodd" d="M57.7 23c11.7 0 21.7 8.6 23.6 19.9C87.5 44.5 92 50.2 92 56.8c0 7.9-6.5 14.3-14.4 14.3H61.363c-.406-1.049-1.097-1.815-2.163-2.3l-4-1.7 2.2-12.3c.4-1.9-.8-3.8-2.6-4.5-.4-.2-.8-.3-1.2-.3-1.4 0-2.8.8-3.5 2.1l-10.328 19H21.9c-3.9 0-7.6-1.5-10.3-4.2-2.9-2.7-4.5-6.4-4.6-10.5v-.2c0-3.8 1.5-7.4 4.2-10.2 2.8-2.9 6.6-4.5 10.7-4.5.6 0 1.1 0 1.7.1 1.4-3.7 5-6.2 9.2-6.2 1.2 0 2.4.2 3.6.7 4-8 12.2-13.1 21.3-13.1Z" clip-rule="evenodd"/>
    <path fill="url(#c)" fill-rule="evenodd" d="M57.7 23c11.7 0 21.7 8.6 23.6 19.9C87.5 44.5 92 50.2 92 56.8c0 7.9-6.5 14.3-14.4 14.3H61.363c-.406-1.049-1.097-1.815-2.163-2.3l-4-1.7 2.2-12.3c.4-1.9-.8-3.8-2.6-4.5-.4-.2-.8-.3-1.2-.3-1.4 0-2.8.8-3.5 2.1l-10.328 19H21.9c-3.9 0-7.6-1.5-10.3-4.2-2.9-2.7-4.5-6.4-4.6-10.5v-.2c0-3.8 1.5-7.4 4.2-10.2 2.8-2.9 6.6-4.5 10.7-4.5.6 0 1.1 0 1.7.1 1.4-3.7 5-6.2 9.2-6.2 1.2 0 2.4.2 3.6.7 4-8 12.2-13.1 21.3-13.1Z" clip-rule="evenodd" opacity=".6" style="mix-blend-mode:multiply"/>
    <g filter="url(#d)" opacity=".3" style="mix-blend-mode:multiply">
      <path fill="#B6B6B6" fill-rule="evenodd" d="M44.073 63.187c-6.589.45-13.618.813-14.573.813-6.5 0-11 5.1-11 5.1h22.359l3.214-5.913Zm12.412-3.27L57.4 54.8c.051-.243.076-.486.077-.727.648-.239 1.17-.47 1.17-.47s4.352-1.602 5.103-1.602c.75 0 .374-2.963.14-4.81l-.14-1.32c0-.362-.448-.885-1-1.53-.777-.908-1.762-2.057-2-3.34-.175-.94.026-2.082.172-2.91.091-.516.16-.91.104-1.058.112.053.922.327.922.327 1.948.66 5.03 1.74 7.802 3.64 1.658 1.138 3.941 3.314 3.941 3.314s1.645 1.272 2.059 1.687c1 1 4 4 6 4h5L89 51.59l.5 3.21c0 7.9-6.5 14.3-14.4 14.3H59.758c-.173-.11-.36-.21-.558-.301l-4-1.7.926-5.178c.556-.355.562-1.108.359-2.004Zm4.505-22.916c.014-.004.026.007.036.032 0 0-.05-.029-.036-.032Z" clip-rule="evenodd"/>
    </g>
    <path fill="#006EDB" d="M53.5 99c-.3 0-.7-.1-1-.2-1.3-.6-1.8-2-1.3-3.3l3.5-8c.6-1.3 2-1.8 3.3-1.3 1.3.6 1.8 2 1.3 3.3l-3.5 8c-.4 1-1.3 1.5-2.3 1.5ZM68.5 90c-.3 0-.7-.1-1-.2-1.3-.6-1.8-2-1.3-3.3l3.5-8c.6-1.3 2-1.8 3.3-1.3 1.3.6 1.8 2 1.3 3.3l-3.5 8c-.4 1-1.3 1.5-2.3 1.5ZM32.5 90c-.3 0-.7-.1-1-.2-1.3-.6-1.8-2-1.3-3.3l3.5-8c.6-1.3 2-1.8 3.3-1.3 1.3.6 1.8 2 1.3 3.3l-3.5 8c-.4 1-1.3 1.5-2.3 1.5Z"/>
    <path fill="#FF9D00" fill-rule="evenodd" d="M50.8 69.4 53.6 54 43 73.5l7.1 3L45.5 94l12.2-21.6-6.9-3Z" clip-rule="evenodd"/>
  </g>
  <defs>
    <linearGradient id="b" x1="12.914" x2="40.256" y1="43.464" y2="10.878" gradientUnits="userSpaceOnUse">
      <stop stop-color="#686E73"/>
      <stop offset=".989" stop-color="#6A7075"/>
    </linearGradient>
    <linearGradient id="c" x1="47.5" x2="49.5" y1="38.5" y2="71.1" gradientUnits="userSpaceOnUse">
      <stop offset=".484" stop-color="#fff" stop-opacity="0"/>
      <stop offset="1" stop-color="#B3B2B2"/>
    </linearGradient>
    <clipPath id="a">
      <path fill="#fff" d="M0 0h100v100H0z"/>
    </clipPath>
    <filter id="d" width="85" height="46.101" x="11.5" y="30" color-interpolation-filters="sRGB" filterUnits="userSpaceOnUse">
      <feFlood flood-opacity="0" result="BackgroundImageFix"/>
      <feBlend in="SourceGraphic" in2="BackgroundImageFix" result="shape"/>
      <feGaussianBlur result="effect1_foregroundBlur_149_1394" stdDeviation="3.5"/>
    </filter>
  </defs>
</svg>
